logos/aws-vpc.svg

<?xml version="1.0" encoding="UTF-8"?>
<svg width="256px" height="256px" viewBox="0 0 256 256" version="1.1" xmlns="http://www.w3.org/2000/svg" xmlns:xlink="http://www.w3.org/1999/xlink" preserveAspectRatio="xMidYMid">
    <title>AWS Virtual Private Cloud (VPC)</title>
    <defs>
        <linearGradient x1="0%" y1="100%" x2="100%" y2="0%" id="linearGradient-1">
            <stop stop-color="#4D27A8" offset="0%"></stop>
            <stop stop-color="#A166FF" offset="100%"></stop>
        </linearGradient>
    </defs>
    <g>
        <rect fill="url(#linearGradient-1)" x="0" y="0" width="256" height="256"></rect>
        <path d="M195.2,132.389448 L177.6,125.349448 L177.6,189.192648 C182.7392,188.680648 186.8832,186.991048 189.8272,184.002248 C195.2672,178.472648 195.2032,170.367048 195.2,170.287048 L195.2,132.389448 Z M171.2,189.234248 L171.2,125.349448 L153.6,132.389448 L153.6,170.223048 C153.6224,170.885448 154.3488,187.365448 171.2,189.234248 L171.2,189.234248 Z M201.6,170.223048 C201.6096,170.584648 201.7696,180.933448 194.448,188.431048 C189.6608,193.336648 182.912,195.823048 174.4,195.823048 C153.3664,195.823048 147.408,179.125448 147.2,170.299848 L147.2,130.223048 C147.2,128.914248 147.9968,127.736648 149.2128,127.250248 L173.2128,117.650248 C173.9744,117.346248 174.8256,117.346248 175.5872,117.650248 L199.5872,127.250248 C200.8032,127.736648 201.6,128.914248 201.6,130.223048 L201.6,170.223048 Z M211.2032,163.931848 L211.2,121.189448 L174.4,106.469448 L137.6,121.189448 L137.6,163.823048 C137.5936,164.114248 137.168,183.752648 148.9088,195.835848 C155.0912,202.197448 163.6672,205.423048 174.4,205.423048 C185.2064,205.423048 193.824,202.175048 200.0128,195.771848 C211.7376,183.637448 211.2096,164.127048 211.2032,163.931848 L211.2032,163.931848 Z M204.6144,200.216648 C197.1744,207.919048 187.008,211.823048 174.4,211.823048 C161.8528,211.823048 151.7216,207.931848 144.288,200.258248 C130.6592,186.200648 131.1712,164.632648 131.2,163.723848 L131.2,119.023048 C131.2,117.714248 131.9968,116.536648 133.2128,116.050248 L173.2128,100.050248 C173.9744,99.746248 174.8256,99.746248 175.5872,100.050248 L215.5872,116.050248 C216.8032,116.536648 217.6,117.714248 217.6,119.023048 L217.6,163.823048 C217.6288,164.623048 218.2048,186.152648 204.6144,200.216648 L204.6144,200.216648 Z M73.776,151.023048 L121.6,151.023048 L121.6,157.423048 L73.776,157.423048 C54.3264,157.423048 39.4784,144.456648 38.4768,126.591048 C38.4064,125.861448 38.4,125.010248 38.4,124.159048 C38.4,102.178248 53.7696,94.085448 62.7328,91.237448 C62.6688,90.210248 62.6368,89.170248 62.6368,88.123848 C62.6368,70.674248 75.0848,52.418248 91.5872,45.659848 C110.9664,37.723848 131.3984,41.567048 146.224,55.922248 C151.2192,60.789448 155.0272,65.986248 157.7824,71.711048 C161.6416,68.399048 166.3008,66.619848 171.2928,66.619848 C181.8688,66.619848 193.056,74.920648 194.9792,90.821448 C201.9648,92.581448 210.7328,96.319048 216.9216,104.255048 L211.8784,108.191048 C206.176,100.875848 197.5712,97.829448 191.36,96.555848 C189.936,96.267848 188.8896,95.058248 188.8064,93.611848 C187.9712,79.464648 179.1424,73.019848 171.2928,73.019848 C166.6144,73.019848 162.4672,75.227848 159.296,79.403848 C158.5888,80.338248 157.4368,80.821448 156.272,80.635848 C155.1168,80.459848 154.144,79.669448 153.744,78.571848 C151.2896,71.883848 147.3728,65.976648 141.7664,60.514248 C128.8256,47.989448 110.9632,44.645448 94.0128,51.583048 C79.776,57.413448 69.0368,73.122248 69.0368,88.123848 C69.0368,89.855048 69.136,91.567048 69.3376,93.208648 C69.5328,94.811848 68.496,96.309448 66.928,96.699848 C58.6656,98.744648 44.8,105.035848 44.8,124.159048 C44.8,124.805448 44.7936,125.455048 44.8576,126.104648 C45.6704,140.594248 57.8304,151.023048 73.776,151.023048 L73.776,151.023048 Z" fill="#FFFFFF"></path>
    </g>
</svg>

<svg preserveAspectRatio="xMidYMid" viewBox="0 0 256 256" xmlns="http://www.w3.org/2000/svg">
  <defs>
    <linearGradient id="aws-vpc_svg__a" x1="0%" x2="100%" y1="100%" y2="0%">
      <stop offset="0%" stop-color="#4D27A8"/>
      <stop offset="100%" stop-color="#A166FF"/>
    </linearGradient>
  </defs>
  <path fill="url(#aws-vpc_svg__a)" d="M0 0h256v256H0z"/>
  <path fill="#FFF" d="m195.2 132.39-17.6-7.04v63.843c5.14-.512 9.283-2.202 12.227-5.19 5.44-5.53 5.376-13.636 5.373-13.716v-37.898Zm-24 56.844V125.35l-17.6 7.04v37.834c.022.662.749 17.142 17.6 19.011Zm30.4-19.011c.01.362.17 10.71-7.152 18.208-4.787 4.906-11.536 7.392-20.048 7.392-21.034 0-26.992-16.698-27.2-25.523v-40.077c0-1.309.797-2.486 2.013-2.973l24-9.6a3.205 3.205 0 0 1 2.374 0l24 9.6a3.202 3.202 0 0 1 2.013 2.973v40Zm9.603-6.291-.003-42.743-36.8-14.72-36.8 14.72v42.634c-.006.291-.432 19.93 11.309 32.013 6.182 6.361 14.758 9.587 25.491 9.587 10.806 0 19.424-3.248 25.613-9.651 11.725-12.135 11.197-31.645 11.19-31.84Zm-6.589 36.285c-7.44 7.702-17.606 11.606-30.214 11.606-12.547 0-22.678-3.891-30.112-11.565-13.629-14.057-13.117-35.625-13.088-36.534v-44.701c0-1.309.797-2.486 2.013-2.973l40-16a3.205 3.205 0 0 1 2.374 0l40 16a3.202 3.202 0 0 1 2.013 2.973v44.8c.029.8.605 22.33-12.986 36.394ZM73.776 151.023H121.6v6.4H73.776c-19.45 0-34.298-12.966-35.3-30.832-.07-.73-.076-1.58-.076-2.432 0-21.98 15.37-30.074 24.333-32.922a50.112 50.112 0 0 1-.096-3.113c0-17.45 12.448-35.706 28.95-42.464 19.38-7.936 39.811-4.093 54.637 10.262 4.995 4.867 8.803 10.064 11.558 15.789 3.86-3.312 8.519-5.091 13.51-5.091 10.577 0 21.764 8.3 23.687 24.201 6.986 1.76 15.754 5.498 21.943 13.434l-5.044 3.936c-5.702-7.315-14.307-10.362-20.518-11.635a3.19 3.19 0 0 1-2.554-2.944c-.835-14.147-9.664-20.592-17.513-20.592-4.679 0-8.826 2.208-11.997 6.384a3.164 3.164 0 0 1-3.024 1.232 3.203 3.203 0 0 1-2.528-2.064c-2.454-6.688-6.371-12.595-11.978-18.058-12.94-12.525-30.803-15.869-47.753-8.931-14.237 5.83-24.976 21.54-24.976 36.54 0 1.732.099 3.444.3 5.086a3.204 3.204 0 0 1-2.409 3.49c-8.262 2.046-22.128 8.337-22.128 27.46 0 .646-.006 1.296.058 1.946.812 14.49 12.972 24.918 28.918 24.918Z"/>
</svg>
